_assets/img/logo.svg

<svg width="220" height="81" viewBox="0 0 220 81" xmlns="http://www.w3.org/2000/svg"><g transform="translate(0 -500)" fill="none" fill-rule="evenodd"><path d="M0 500H220V581H0z"/><path d="M30.776 546h-4.272v-11.024h4.272c3.136 0 4.96 2.4 4.96 5.536 0 3.12-1.824 5.488-4.96 5.488zm-2.784-1.392h2.784c2.288 0 3.472-1.776 3.472-4.096 0-2.32-1.184-4.144-3.472-4.144h-2.784v8.24zm10.768-2.928h4.64c-.176-1.248-1.072-2-2.272-2-1.232 0-2.192.752-2.368 2zm6.08.56c0 .176 0 .416-.016.576H38.76c.176 1.248 1.152 2.032 2.416 2.032.896 0 1.728-.416 2.144-1.152.384.16.848.32 1.248.48-.64 1.312-2 1.984-3.44 1.984-2.128 0-3.824-1.552-3.824-3.92s1.696-3.872 3.824-3.872 3.712 1.504 3.712 3.872zm.768-3.712L48.712 546h1.408-.016l3.12-7.472h-1.552l-2.256 5.616-2.272-5.616h-1.536zm9.888 3.152h4.64c-.176-1.248-1.072-2-2.272-2-1.232 0-2.192.752-2.368 2zm6.08.56c0 .176 0 .416-.016.576h-6.064c.176 1.248 1.152 2.032 2.416 2.032.896 0 1.728-.416 2.144-1.152.384.16.848.32 1.248.48-.64 1.312-2 1.984-3.44 1.984-2.128 0-3.824-1.552-3.824-3.92s1.696-3.872 3.824-3.872 3.712 1.504 3.712 3.872zm1.856-7.776V546h1.456v-11.536h-1.456zm7.296 11.696c-2.128 0-3.904-1.552-3.904-3.92s1.776-3.872 3.904-3.872 3.92 1.504 3.92 3.872-1.792 3.92-3.92 3.92zm0-1.408c1.344 0 2.464-.992 2.464-2.512 0-1.504-1.12-2.448-2.464-2.448-1.344 0-2.464.944-2.464 2.448 0 1.52 1.12 2.512 2.464 2.512zm7.312-6.224v1.168c.496-.848 1.568-1.328 2.608-1.328 2.048 0 3.744 1.552 3.744 3.92s-1.696 3.872-3.744 3.872c-1.04 0-2.112-.416-2.608-1.28v4.752h-1.456v-11.104h1.456zm.016 3.776c0 1.6 1.248 2.432 2.448 2.432 1.344 0 2.416-.944 2.416-2.432s-1.072-2.512-2.416-2.512c-1.312 0-2.448.928-2.448 2.512zm9.232-.624h4.64c-.176-1.248-1.072-2-2.272-2-1.232 0-2.192.752-2.368 2zm6.08.56c0 .176 0 .416-.016.576h-6.064c.176 1.248 1.152 2.032 2.416 2.032.896 0 1.728-.416 2.144-1.152.384.16.848.32 1.248.48-.64 1.312-2 1.984-3.44 1.984-2.128 0-3.824-1.552-3.824-3.92s1.696-3.872 3.824-3.872 3.712 1.504 3.712 3.872zm3.312 1.04V546h-1.456v-7.472h1.456v1.68c.384-1.312 1.104-1.84 2.08-1.84.528 0 1.088.144 1.296.288l-.224 1.36a2.6 2.6 0 0 0-1.104-.256c-1.44 0-2.048 1.536-2.048 3.52zm4.016 4.736l-1.024-.336c.624-.864 1.12-2 1.088-3.52h1.536c-.144 1.984-.912 3.296-1.6 3.856zM113.448 546h-4.272v-11.024h4.272c3.136 0 4.96 2.4 4.96 5.536 0 3.12-1.824 5.488-4.96 5.488zm-2.784-1.392h2.784c2.288 0 3.472-1.776 3.472-4.096 0-2.32-1.184-4.144-3.472-4.144h-2.784v8.24zm10.768-2.928h4.64c-.176-1.248-1.072-2-2.272-2-1.232 0-2.192.752-2.368 2zm6.08.56c0 .176 0 .416-.016.576h-6.064c.176 1.248 1.152 2.032 2.416 2.032.896 0 1.728-.416 2.144-1.152.384.16.848.32 1.248.48-.64 1.312-2 1.984-3.44 1.984-2.128 0-3.824-1.552-3.824-3.92s1.696-3.872 3.824-3.872 3.712 1.504 3.712 3.872zm3.552.464l1.024.24c.544.128 1.008.4.992.944-.016.544-.464.928-1.136.976-.48.032-.864-.064-1.184-.256a1.157 1.157 0 0 1-.608-.848h-1.328c.048 1.536 1.44 2.4 2.784 2.4 1.552 0 2.896-.848 2.896-2.24 0-.848-.384-1.792-1.936-2.176l-1.104-.272c-.384-.112-.736-.272-.88-.576-.08-.176-.08-.352-.016-.592.112-.4.576-.672 1.12-.672.576 0 1.088.288 1.168.848h1.392c-.128-1.52-1.328-2.112-2.592-2.112-1.328 0-2.48.816-2.592 1.904-.128 1.376.64 2.064 2 2.432zm6.768 3.296h-1.44v-7.472h1.44V546zm-1.728-10.224c0-.544.464-.944 1.008-.944.56 0 1.008.4 1.008.944 0 .544-.448.944-1.008.944-.544 0-1.008-.4-1.008-.944zm5.28 11.296c.448.832 1.328 1.28 2.16 1.28 1.616 0 2.656-.912 2.656-3.392 0-.064-.016-.112-.016-.176-.448.88-1.584 1.376-2.624 1.376-2.048 0-3.792-1.504-3.792-3.872 0-2.384 1.744-3.92 3.792-3.92 1.04 0 2.128.464 2.624 1.328v-1.168h1.44v6.336c0 3.52-1.616 4.864-4.08 4.864-1.376 0-2.656-.704-3.376-2.016.192-.08 1.024-.544 1.216-.64zm4.784-4.8c0-1.6-1.152-2.48-2.48-2.48-1.344 0-2.432 1.024-2.432 2.48 0 1.52 1.088 2.464 2.432 2.464 1.2 0 2.48-.88 2.48-2.464zm5.328-.304c0-1.584 1.056-2.176 2.112-2.176 1.024 0 1.648.736 1.648 1.984V546h1.456v-4.32c0-2.096-1.024-3.312-2.88-3.312-.816 0-1.888.384-2.336 1.28v-1.12h-1.456V546h1.456v-4.032zm8.512-.288h4.64c-.176-1.248-1.072-2-2.272-2-1.232 0-2.192.752-2.368 2zm6.08.56c0 .176 0 .416-.016.576h-6.064c.176 1.248 1.152 2.032 2.416 2.032.896 0 1.728-.416 2.144-1.152.384.16.848.32 1.248.48-.64 1.312-2 1.984-3.44 1.984-2.128 0-3.824-1.552-3.824-3.92s1.696-3.872 3.824-3.872 3.712 1.504 3.712 3.872zm3.312 1.04c0-1.984.608-3.52 2.048-3.52a2.6 2.6 0 0 1 1.104.256l.224-1.36c-.208-.144-.768-.288-1.296-.288-.976 0-1.696.528-2.08 1.84v-1.68h-1.456V546h1.456v-2.72zM29.528 558.248h2.16v-1.424h1.376v1.44h1.392v1.168h-1.392v2.192c0 1.2.224 2.176 1.664 2.176v1.344c-1.2 0-2.112-.496-2.528-1.184-.56.768-1.616 1.184-2.72 1.184-2.128 0-3.6-1.552-3.6-3.52 0-1.2.624-2.272 1.632-2.912-.512-.48-.784-1.216-.784-1.984 0-1.52 1.248-2.752 2.864-2.752 1.12 0 2.112.64 2.656 1.568l-1.184.736c-.32-.544-.864-.912-1.472-.912-.848 0-1.472.576-1.472 1.36 0 .768.576 1.52 1.408 1.52zm2.16 1.184h-2.192a2.223 2.223 0 0 0-2.224 2.192c0 1.2.88 2.128 2.208 2.128 1.264 0 2.16-.88 2.208-2.032v-2.288zm16.64-2.608c0 .928-.352 1.904-1.392 2.304 1.232.256 1.984 1.584 1.984 2.688 0 1.712-1.2 3.184-3.232 3.184h-4.512v-11.024h4.16c1.84 0 2.992 1.104 2.992 2.848zm-5.648 1.728h2.656c.976 0 1.472-.784 1.472-1.68 0-.96-.64-1.52-1.632-1.52H42.68v3.2zm2.896 1.312H42.68v3.744h2.944c1.088 0 1.76-.88 1.76-1.808 0-.88-.688-1.936-1.808-1.936zm6.816 2.416c0-1.984.608-3.52 2.048-3.52a2.6 2.6 0 0 1 1.104.256l.224-1.36c-.208-.144-.768-.288-1.296-.288-.976 0-1.696.528-2.08 1.84v-1.68h-1.456V565h1.456v-2.72zM62.984 565v-1.152c-.496.848-1.584 1.312-2.624 1.312-2.048 0-3.792-1.536-3.792-3.904 0-2.384 1.744-3.888 3.792-3.888 1.04 0 2.128.432 2.624 1.28v-1.12h1.44V565h-1.44zm-.016-3.76c0-1.6-1.28-2.448-2.48-2.448-1.344 0-2.432.96-2.432 2.448 0 1.472 1.088 2.496 2.432 2.496 1.328 0 2.48-.912 2.48-2.496zm5.344-.272c0-1.584 1.056-2.176 2.112-2.176 1.024 0 1.648.736 1.648 1.984V565h1.456v-4.32c0-2.096-1.024-3.312-2.88-3.312-.816 0-1.888.384-2.336 1.28v-1.12h-1.456V565h1.456v-4.032zM81.768 565v-1.152c-.496.848-1.584 1.312-2.624 1.312-2.048 0-3.776-1.536-3.776-3.904 0-2.384 1.712-3.888 3.76-3.888 1.104 0 2.144.432 2.64 1.28v-5.184h1.456V565h-1.456zm-.016-3.76c0-1.6-1.28-2.448-2.48-2.448-1.344 0-2.416.96-2.416 2.448 0 1.472 1.072 2.496 2.416 2.496 1.312 0 2.48-.912 2.48-2.496zm16.272 1.072a3.988 3.988 0 0 1-3.056 1.408c-2.304 0-4.096-1.872-4.096-4.208 0-2.336 1.792-4.224 4.096-4.224 1.216 0 2.272.544 3.024 1.36l1.12-.928c-.976-1.152-2.448-1.872-4.144-1.872-3.12 0-5.584 2.528-5.584 5.664 0 3.12 2.464 5.648 5.584 5.648 1.712 0 3.2-.736 4.176-1.904l-1.12-.944zm6.128 2.848c-2.128 0-3.904-1.552-3.904-3.92s1.776-3.872 3.904-3.872 3.92 1.504 3.92 3.872-1.792 3.92-3.92 3.92zm0-1.408c1.344 0 2.464-.992 2.464-2.512 0-1.504-1.12-2.448-2.464-2.448-1.344 0-2.464.944-2.464 2.448 0 1.52 1.12 2.512 2.464 2.512zm7.312-2.784c0-1.584 1.056-2.176 2.112-2.176 1.024 0 1.648.736 1.648 1.984V565h1.456v-4.32c0-2.096-1.024-3.312-2.88-3.312-.816 0-1.888.384-2.336 1.28v-1.12h-1.456V565h1.456v-4.032zm9.248.736l1.024.24c.544.128 1.008.4.992.944-.016.544-.464.928-1.136.976-.48.032-.864-.064-1.184-.256a1.157 1.157 0 0 1-.608-.848h-1.328c.048 1.536 1.44 2.4 2.784 2.4 1.552 0 2.896-.848 2.896-2.24 0-.848-.384-1.792-1.936-2.176l-1.104-.272c-.384-.112-.736-.272-.88-.576-.08-.176-.08-.352-.016-.592.112-.4.576-.672 1.12-.672.576 0 1.088.288 1.168.848h1.392c-.128-1.52-1.328-2.112-2.592-2.112-1.328 0-2.48.816-2.592 1.904-.128 1.376.64 2.064 2 2.432zm10.432-.144c0 1.6-1.056 2.176-2.112 2.176-1.024 0-1.632-.736-1.632-1.984v-4.224h-1.456v4.32c-.016 2.096 1.008 3.312 2.88 3.312.816 0 1.872-.384 2.32-1.28V565h1.456v-7.472h-1.456v4.032zm3.888-8.096V565h1.456v-11.536h-1.456zm5.904 4.064v-2.816h-1.456v2.816h-1.344v1.232h1.344V565h1.456v-6.24h1.584v-1.232h-1.584zm9.04 7.472v-1.152c-.496.848-1.584 1.312-2.624 1.312-2.048 0-3.792-1.536-3.792-3.904 0-2.384 1.744-3.888 3.792-3.888 1.04 0 2.128.432 2.624 1.28v-1.12h1.44V565h-1.44zm-.016-3.76c0-1.6-1.28-2.448-2.48-2.448-1.344 0-2.432.96-2.432 2.448 0 1.472 1.088 2.496 2.432 2.496 1.328 0 2.48-.912 2.48-2.496zm5.344-.272c0-1.584 1.056-2.176 2.112-2.176 1.024 0 1.648.736 1.648 1.984V565h1.456v-4.32c0-2.096-1.024-3.312-2.88-3.312-.816 0-1.888.384-2.336 1.28v-1.12h-1.456V565h1.456v-4.032zm9.568-3.44v-2.816h-1.456v2.816h-1.344v1.232h1.344V565h1.456v-6.24h1.584v-1.232h-1.584z" fill="#555B6E"/><text font-family="SofiaProRegular, Sofia Pro" font-size="16" fill="#FFF"><tspan x="25" y="527">Tom Skarbek-Wazynski </tspan></text></g></svg>

<svg width="220px" height="81px" viewBox="0 0 220 81" version="1.1" xmlns="http://www.w3.org/2000/svg" xmlns:xlink="http://www.w3.org/1999/xlink">
    <defs></defs>
    <g id="Final" stroke="none" stroke-width="1" fill="none" fill-rule="evenodd">
        <g id="1024-copy" transform="translate(-197.000000, -358.000000)">
            <g id="Intro" transform="translate(197.000000, -142.000000)">
                <rect id="Rectangle-3" x="0" y="500" width="220" height="81"></rect>
                <path d="M30.776,546 L26.504,546 L26.504,534.976 L30.776,534.976 C33.912,534.976 35.736,537.376 35.736,540.512 C35.736,543.632 33.912,546 30.776,546 Z M27.992,544.608 L30.776,544.608 C33.064,544.608 34.248,542.832 34.248,540.512 C34.248,538.192 33.064,536.368 30.776,536.368 L27.992,536.368 L27.992,544.608 Z M38.76,541.68 L43.4,541.68 C43.224,540.432 42.328,539.68 41.128,539.68 C39.896,539.68 38.936,540.432 38.76,541.68 Z M44.84,542.24 C44.84,542.416 44.84,542.656 44.824,542.816 L38.76,542.816 C38.936,544.064 39.912,544.848 41.176,544.848 C42.072,544.848 42.904,544.432 43.32,543.696 C43.704,543.856 44.168,544.016 44.568,544.176 C43.928,545.488 42.568,546.16 41.128,546.16 C39,546.16 37.304,544.608 37.304,542.24 C37.304,539.872 39,538.368 41.128,538.368 C43.256,538.368 44.84,539.872 44.84,542.24 Z M45.608,538.528 L48.712,546 L50.12,546 L50.104,546 L53.224,538.528 L51.672,538.528 L49.416,544.144 L47.144,538.528 L45.608,538.528 Z M55.496,541.68 L60.136,541.68 C59.96,540.432 59.064,539.68 57.864,539.68 C56.632,539.68 55.672,540.432 55.496,541.68 Z M61.576,542.24 C61.576,542.416 61.576,542.656 61.56,542.816 L55.496,542.816 C55.672,544.064 56.648,544.848 57.912,544.848 C58.808,544.848 59.64,544.432 60.056,543.696 C60.44,543.856 60.904,544.016 61.304,544.176 C60.664,545.488 59.304,546.16 57.864,546.16 C55.736,546.16 54.04,544.608 54.04,542.24 C54.04,539.872 55.736,538.368 57.864,538.368 C59.992,538.368 61.576,539.872 61.576,542.24 Z M63.432,534.464 L63.432,546 L64.888,546 L64.888,534.464 L63.432,534.464 Z M70.728,546.16 C68.6,546.16 66.824,544.608 66.824,542.24 C66.824,539.872 68.6,538.368 70.728,538.368 C72.856,538.368 74.648,539.872 74.648,542.24 C74.648,544.608 72.856,546.16 70.728,546.16 Z M70.728,544.752 C72.072,544.752 73.192,543.76 73.192,542.24 C73.192,540.736 72.072,539.792 70.728,539.792 C69.384,539.792 68.264,540.736 68.264,542.24 C68.264,543.76 69.384,544.752 70.728,544.752 Z M78.04,538.528 L78.04,539.696 C78.536,538.848 79.608,538.368 80.648,538.368 C82.696,538.368 84.392,539.92 84.392,542.288 C84.392,544.656 82.696,546.16 80.648,546.16 C79.608,546.16 78.536,545.744 78.04,544.88 L78.04,549.632 L76.584,549.632 L76.584,538.528 L78.04,538.528 Z M78.056,542.304 C78.056,543.904 79.304,544.736 80.504,544.736 C81.848,544.736 82.92,543.792 82.92,542.304 C82.92,540.816 81.848,539.792 80.504,539.792 C79.192,539.792 78.056,540.72 78.056,542.304 Z M87.288,541.68 L91.928,541.68 C91.752,540.432 90.856,539.68 89.656,539.68 C88.424,539.68 87.464,540.432 87.288,541.68 Z M93.368,542.24 C93.368,542.416 93.368,542.656 93.352,542.816 L87.288,542.816 C87.464,544.064 88.44,544.848 89.704,544.848 C90.6,544.848 91.432,544.432 91.848,543.696 C92.232,543.856 92.696,544.016 93.096,544.176 C92.456,545.488 91.096,546.16 89.656,546.16 C87.528,546.16 85.832,544.608 85.832,542.24 C85.832,539.872 87.528,538.368 89.656,538.368 C91.784,538.368 93.368,539.872 93.368,542.24 Z M96.68,543.28 L96.68,546 L95.224,546 L95.224,538.528 L96.68,538.528 L96.68,540.208 C97.064,538.896 97.784,538.368 98.76,538.368 C99.288,538.368 99.848,538.512 100.056,538.656 L99.832,540.016 C99.432,539.824 99.032,539.76 98.728,539.76 C97.288,539.76 96.68,541.296 96.68,543.28 Z M100.696,548.016 L99.672,547.68 C100.296,546.816 100.792,545.68 100.76,544.16 L102.296,544.16 C102.152,546.144 101.384,547.456 100.696,548.016 Z M113.448,546 L109.176,546 L109.176,534.976 L113.448,534.976 C116.584,534.976 118.408,537.376 118.408,540.512 C118.408,543.632 116.584,546 113.448,546 Z M110.664,544.608 L113.448,544.608 C115.736,544.608 116.92,542.832 116.92,540.512 C116.92,538.192 115.736,536.368 113.448,536.368 L110.664,536.368 L110.664,544.608 Z M121.432,541.68 L126.072,541.68 C125.896,540.432 125,539.68 123.8,539.68 C122.568,539.68 121.608,540.432 121.432,541.68 Z M127.512,542.24 C127.512,542.416 127.512,542.656 127.496,542.816 L121.432,542.816 C121.608,544.064 122.584,544.848 123.848,544.848 C124.744,544.848 125.576,544.432 125.992,543.696 C126.376,543.856 126.84,544.016 127.24,544.176 C126.6,545.488 125.24,546.16 123.8,546.16 C121.672,546.16 119.976,544.608 119.976,542.24 C119.976,539.872 121.672,538.368 123.8,538.368 C125.928,538.368 127.512,539.872 127.512,542.24 Z M131.064,542.704 L132.088,542.944 C132.632,543.072 133.096,543.344 133.08,543.888 C133.064,544.432 132.616,544.816 131.944,544.864 C131.464,544.896 131.08,544.8 130.76,544.608 C130.408,544.432 130.2,544.08 130.152,543.76 L128.824,543.76 C128.872,545.296 130.264,546.16 131.608,546.16 C133.16,546.16 134.504,545.312 134.504,543.92 C134.504,543.072 134.12,542.128 132.568,541.744 L131.464,541.472 C131.08,541.36 130.728,541.2 130.584,540.896 C130.504,540.72 130.504,540.544 130.568,540.304 C130.68,539.904 131.144,539.632 131.688,539.632 C132.264,539.632 132.776,539.92 132.856,540.48 L134.248,540.48 C134.12,538.96 132.92,538.368 131.656,538.368 C130.328,538.368 129.176,539.184 129.064,540.272 C128.936,541.648 129.704,542.336 131.064,542.704 Z M137.832,546 L136.392,546 L136.392,538.528 L137.832,538.528 L137.832,546 Z M136.104,535.776 C136.104,535.232 136.568,534.832 137.112,534.832 C137.672,534.832 138.12,535.232 138.12,535.776 C138.12,536.32 137.672,536.72 137.112,536.72 C136.568,536.72 136.104,536.32 136.104,535.776 Z M141.384,547.072 C141.832,547.904 142.712,548.352 143.544,548.352 C145.16,548.352 146.2,547.44 146.2,544.96 C146.2,544.896 146.184,544.848 146.184,544.784 C145.736,545.664 144.6,546.16 143.56,546.16 C141.512,546.16 139.768,544.656 139.768,542.288 C139.768,539.904 141.512,538.368 143.56,538.368 C144.6,538.368 145.688,538.832 146.184,539.696 L146.184,538.528 L147.624,538.528 L147.624,544.864 C147.624,548.384 146.008,549.728 143.544,549.728 C142.168,549.728 140.888,549.024 140.168,547.712 C140.36,547.632 141.192,547.168 141.384,547.072 Z M146.168,542.272 C146.168,540.672 145.016,539.792 143.688,539.792 C142.344,539.792 141.256,540.816 141.256,542.272 C141.256,543.792 142.344,544.736 143.688,544.736 C144.888,544.736 146.168,543.856 146.168,542.272 Z M151.496,541.968 C151.496,540.384 152.552,539.792 153.608,539.792 C154.632,539.792 155.256,540.528 155.256,541.776 L155.256,546 L156.712,546 L156.712,541.68 C156.712,539.584 155.688,538.368 153.832,538.368 C153.016,538.368 151.944,538.752 151.496,539.648 L151.496,538.528 L150.04,538.528 L150.04,546 L151.496,546 L151.496,541.968 Z M160.008,541.68 L164.648,541.68 C164.472,540.432 163.576,539.68 162.376,539.68 C161.144,539.68 160.184,540.432 160.008,541.68 Z M166.088,542.24 C166.088,542.416 166.088,542.656 166.072,542.816 L160.008,542.816 C160.184,544.064 161.16,544.848 162.424,544.848 C163.32,544.848 164.152,544.432 164.568,543.696 C164.952,543.856 165.416,544.016 165.816,544.176 C165.176,545.488 163.816,546.16 162.376,546.16 C160.248,546.16 158.552,544.608 158.552,542.24 C158.552,539.872 160.248,538.368 162.376,538.368 C164.504,538.368 166.088,539.872 166.088,542.24 Z M169.4,543.28 C169.4,541.296 170.008,539.76 171.448,539.76 C171.752,539.76 172.152,539.824 172.552,540.016 L172.776,538.656 C172.568,538.512 172.008,538.368 171.48,538.368 C170.504,538.368 169.784,538.896 169.4,540.208 L169.4,538.528 L167.944,538.528 L167.944,546 L169.4,546 L169.4,543.28 Z M29.528,558.248 L31.688,558.248 L31.688,556.824 L33.064,556.824 L33.064,558.264 L34.456,558.264 L34.456,559.432 L33.064,559.432 L33.064,561.624 C33.064,562.824 33.288,563.8 34.728,563.8 L34.728,565.144 C33.528,565.144 32.616,564.648 32.2,563.96 C31.64,564.728 30.584,565.144 29.48,565.144 C27.352,565.144 25.88,563.592 25.88,561.624 C25.88,560.424 26.504,559.352 27.512,558.712 C27,558.232 26.728,557.496 26.728,556.728 C26.728,555.208 27.976,553.976 29.592,553.976 C30.712,553.976 31.704,554.616 32.248,555.544 L31.064,556.28 C30.744,555.736 30.2,555.368 29.592,555.368 C28.744,555.368 28.12,555.944 28.12,556.728 C28.12,557.496 28.696,558.248 29.528,558.248 Z M31.688,559.432 L29.496,559.432 C28.216,559.432 27.272,560.488 27.272,561.624 C27.272,562.824 28.152,563.752 29.48,563.752 C30.744,563.752 31.64,562.872 31.688,561.72 L31.688,559.432 Z M48.328,556.824 C48.328,557.752 47.976,558.728 46.936,559.128 C48.168,559.384 48.92,560.712 48.92,561.816 C48.92,563.528 47.72,565 45.688,565 L41.176,565 L41.176,553.976 L45.336,553.976 C47.176,553.976 48.328,555.08 48.328,556.824 Z M42.68,558.552 L45.336,558.552 C46.312,558.552 46.808,557.768 46.808,556.872 C46.808,555.912 46.168,555.352 45.176,555.352 L42.68,555.352 L42.68,558.552 Z M45.576,559.864 L42.68,559.864 L42.68,563.608 L45.624,563.608 C46.712,563.608 47.384,562.728 47.384,561.8 C47.384,560.92 46.696,559.864 45.576,559.864 Z M52.392,562.28 C52.392,560.296 53,558.76 54.44,558.76 C54.744,558.76 55.144,558.824 55.544,559.016 L55.768,557.656 C55.56,557.512 55,557.368 54.472,557.368 C53.496,557.368 52.776,557.896 52.392,559.208 L52.392,557.528 L50.936,557.528 L50.936,565 L52.392,565 L52.392,562.28 Z M62.984,565 L62.984,563.848 C62.488,564.696 61.4,565.16 60.36,565.16 C58.312,565.16 56.568,563.624 56.568,561.256 C56.568,558.872 58.312,557.368 60.36,557.368 C61.4,557.368 62.488,557.8 62.984,558.648 L62.984,557.528 L64.424,557.528 L64.424,565 L62.984,565 Z M62.968,561.24 C62.968,559.64 61.688,558.792 60.488,558.792 C59.144,558.792 58.056,559.752 58.056,561.24 C58.056,562.712 59.144,563.736 60.488,563.736 C61.816,563.736 62.968,562.824 62.968,561.24 Z M68.312,560.968 C68.312,559.384 69.368,558.792 70.424,558.792 C71.448,558.792 72.072,559.528 72.072,560.776 L72.072,565 L73.528,565 L73.528,560.68 C73.528,558.584 72.504,557.368 70.648,557.368 C69.832,557.368 68.76,557.752 68.312,558.648 L68.312,557.528 L66.856,557.528 L66.856,565 L68.312,565 L68.312,560.968 Z M81.768,565 L81.768,563.848 C81.272,564.696 80.184,565.16 79.144,565.16 C77.096,565.16 75.368,563.624 75.368,561.256 C75.368,558.872 77.08,557.368 79.128,557.368 C80.232,557.368 81.272,557.8 81.768,558.648 L81.768,553.464 L83.224,553.464 L83.224,565 L81.768,565 Z M81.752,561.24 C81.752,559.64 80.472,558.792 79.272,558.792 C77.928,558.792 76.856,559.752 76.856,561.24 C76.856,562.712 77.928,563.736 79.272,563.736 C80.584,563.736 81.752,562.824 81.752,561.24 Z M98.024,562.312 C97.288,563.176 96.2,563.72 94.968,563.72 C92.664,563.72 90.872,561.848 90.872,559.512 C90.872,557.176 92.664,555.288 94.968,555.288 C96.184,555.288 97.24,555.832 97.992,556.648 L99.112,555.72 C98.136,554.568 96.664,553.848 94.968,553.848 C91.848,553.848 89.384,556.376 89.384,559.512 C89.384,562.632 91.848,565.16 94.968,565.16 C96.68,565.16 98.168,564.424 99.144,563.256 L98.024,562.312 Z M104.152,565.16 C102.024,565.16 100.248,563.608 100.248,561.24 C100.248,558.872 102.024,557.368 104.152,557.368 C106.28,557.368 108.072,558.872 108.072,561.24 C108.072,563.608 106.28,565.16 104.152,565.16 Z M104.152,563.752 C105.496,563.752 106.616,562.76 106.616,561.24 C106.616,559.736 105.496,558.792 104.152,558.792 C102.808,558.792 101.688,559.736 101.688,561.24 C101.688,562.76 102.808,563.752 104.152,563.752 Z M111.464,560.968 C111.464,559.384 112.52,558.792 113.576,558.792 C114.6,558.792 115.224,559.528 115.224,560.776 L115.224,565 L116.68,565 L116.68,560.68 C116.68,558.584 115.656,557.368 113.8,557.368 C112.984,557.368 111.912,557.752 111.464,558.648 L111.464,557.528 L110.008,557.528 L110.008,565 L111.464,565 L111.464,560.968 Z M120.712,561.704 L121.736,561.944 C122.28,562.072 122.744,562.344 122.728,562.888 C122.712,563.432 122.264,563.816 121.592,563.864 C121.112,563.896 120.728,563.8 120.408,563.608 C120.056,563.432 119.848,563.08 119.8,562.76 L118.472,562.76 C118.52,564.296 119.912,565.16 121.256,565.16 C122.808,565.16 124.152,564.312 124.152,562.92 C124.152,562.072 123.768,561.128 122.216,560.744 L121.112,560.472 C120.728,560.36 120.376,560.2 120.232,559.896 C120.152,559.72 120.152,559.544 120.216,559.304 C120.328,558.904 120.792,558.632 121.336,558.632 C121.912,558.632 122.424,558.92 122.504,559.48 L123.896,559.48 C123.768,557.96 122.568,557.368 121.304,557.368 C119.976,557.368 118.824,558.184 118.712,559.272 C118.584,560.648 119.352,561.336 120.712,561.704 Z M131.144,561.56 C131.144,563.16 130.088,563.736 129.032,563.736 C128.008,563.736 127.4,563 127.4,561.752 L127.4,557.528 L125.944,557.528 L125.944,561.848 C125.928,563.944 126.952,565.16 128.824,565.16 C129.64,565.16 130.696,564.776 131.144,563.88 L131.144,565 L132.6,565 L132.6,557.528 L131.144,557.528 L131.144,561.56 Z M135.032,553.464 L135.032,565 L136.488,565 L136.488,553.464 L135.032,553.464 Z M140.936,557.528 L140.936,554.712 L139.48,554.712 L139.48,557.528 L138.136,557.528 L138.136,558.76 L139.48,558.76 L139.48,565 L140.936,565 L140.936,558.76 L142.52,558.76 L142.52,557.528 L140.936,557.528 Z M149.976,565 L149.976,563.848 C149.48,564.696 148.392,565.16 147.352,565.16 C145.304,565.16 143.56,563.624 143.56,561.256 C143.56,558.872 145.304,557.368 147.352,557.368 C148.392,557.368 149.48,557.8 149.976,558.648 L149.976,557.528 L151.416,557.528 L151.416,565 L149.976,565 Z M149.96,561.24 C149.96,559.64 148.68,558.792 147.48,558.792 C146.136,558.792 145.048,559.752 145.048,561.24 C145.048,562.712 146.136,563.736 147.48,563.736 C148.808,563.736 149.96,562.824 149.96,561.24 Z M155.304,560.968 C155.304,559.384 156.36,558.792 157.416,558.792 C158.44,558.792 159.064,559.528 159.064,560.776 L159.064,565 L160.52,565 L160.52,560.68 C160.52,558.584 159.496,557.368 157.64,557.368 C156.824,557.368 155.752,557.752 155.304,558.648 L155.304,557.528 L153.848,557.528 L153.848,565 L155.304,565 L155.304,560.968 Z M164.872,557.528 L164.872,554.712 L163.416,554.712 L163.416,557.528 L162.072,557.528 L162.072,558.76 L163.416,558.76 L163.416,565 L164.872,565 L164.872,558.76 L166.456,558.76 L166.456,557.528 L164.872,557.528 Z" id="Developer,-Designer" fill="#555B6E"></path>
                <text id="Tom-Skarbek-Wazynski" font-family="SofiaProRegular, Sofia Pro" font-size="16" font-weight="normal" fill="#FFFFFF">
                    <tspan x="25" y="527">Tom Skarbek-Wazynski </tspan>
                </text>
            </g>
        </g>
    </g>
</svg>
